X: 1703
T: Meeking Rose Waltz
C:Ray Rose, Gracemere Queensland, collected by Bill "Monty" Montgomery
B: australian traditional tunes wiki
M:3/4
L:1/4
R: Waltz
Q: 1/4=100
K:D
V:1 
+segno+|zFA|"D" d2d|dcd|e2d|F3|F2A|dcB|"A7"c3-|
cd^d|"A7"e2e|e^de|f2e|c2B|A2g|f2e|"D"f3-|
fFA|d2 d|dcd|e2d|F3|f2f|e2 d|"G"B3-|
B3|"G"g2g-|gfe|"D"f2f|fed|"A7"efg|fce|"D"d3-+fine+||
dFA|d2d|e2d|d2A|F2F|A2A|A2^A|"G"B3-|
Bcd|"A7"e2e|d2B|c2c|c2B|A2g|f2e|"D"f3-|
fFA|"D"d2d|e2e|d2A|f2A|f2f|e2d|"G"B3-|
B3|g2g-|gfe|"D"f2f|fed|"A7" efg|fce|"D"d3+D.S.+||
% abcbook-tune_id 6342d53a8b2b49b27954b1cb


% abcbook-boost 0
% abcbook-tablature 
% abcbook-transpose 
% abcbook-lastupdated 1665324378929
% abcbook-soundfonts 
% abcbook-repeats 1


